X:1
T: The Gaelic Club
C:
R:Jig
Q:180
K:Am
M:6/8
L:1/16
AB|c2B2A2 A2G2E2|A2B2A2 A2B2c2|B2A2G2 B2d2G2|B2d2g2 G2A2B2|c2B2A2 A2G2E2|A2B2A2 c4d2|e2f2e2 d2c2B2|c2A2A2 A4AB|
c2B2A2 A2G2E2|A2B2A2 A2B2c2|B2A2G2 B2d2G2|B2d2g2 G2A2B2|c2B2A2 A2G2E2|A2B2A2 c4d2|e2f2e2 d2c2B2|c2A2A2 A4B2|
c2e2g2 g2e2c2|c2e2g2 d2B2G2|c2e2g2 g2e2c2|B2G2G2 G4AB|c2B2A2 A2G2E2|A2B2A2 c4d2|e2f2e2 d2c2B2|c2A2A2 A4B2|
c2e2g2 g2e2c2|c2e2g2 d2B2G2|c2e2g2 g2e2c2|B2G2G2 G4AB|c2B2A2 A2G2E2|A2B2A2 c4d2|e2f2e2 d2c2B2|c2A2A2 A4||
